icons/Fortran.svg

<svg xmlns="http://www.w3.org/2000/svg" width="256" height="256" fill="none" viewBox="0 0 256 256"><rect width="256" height="256" fill="#734F96" rx="60"/><path fill="#fff" d="M35 206.2L44.8 205.6C64.7 204.3 64.5 204.4 65.5 188.8C66.4 174 65.2663 58.1234 64.6 55.8C63.5025 51.973 59.3844 49.7719 47.1 49.775L35 49.7V28H221V111.1L199.1 110.775C198.9 110.575 198.3 104.7 197.9 99.2999C195.6 73.9 189.9 59.2858 178.9 53.5858C173.1 50.5858 164.043 49.7016 135.035 49.6928L108 49.7V112H112.8C120.9 111.9 131.2 110 134.6 107.9C139 105.2 142.7 97.3999 144 88C144.98 81.1397 145.736 76.0067 145.736 76.0067L167 76V175H145V171.1C145 164.7 142 149.8 139.9 145.3C136.6 138.4 131 136 115.1 134.5L107.8 133.8L108.2 165.9C108.5 196.4 108.7 198.1 110.6 200.7C113 203.9 115.6 204.5 131.5 205.7L142.173 206.208L142.1 228H35V206.2Z"/></svg>

<svg xmlns="http://www.w3.org/2000/svg" width="256" height="256" fill="none" viewBox="0 0 256 256"><rect width="256" height="256" fill="#734F96" rx="60"/><path fill="#fff" d="m35 206.2 9.8-.6c19.9-1.3 19.7-1.2 20.7-16.8.9-14.8-.23-130.68-.9-133-1.1-3.83-5.22-6.03-17.5-6.02L35 49.7V28h186v83.1l-21.9-.32c-.2-.2-.8-6.08-1.2-11.48-2.3-25.4-8-40.01-19-45.71-5.8-3-14.86-3.89-43.87-3.9L108 49.7V112h4.8c8.1-.1 18.4-2 21.8-4.1 4.4-2.7 8.1-10.5 9.4-19.9.98-6.86 1.74-12 1.74-12H167v99h-22v-3.9c0-6.4-3-21.3-5.1-25.8-3.3-6.9-8.9-9.3-24.8-10.8l-7.3-.7.4 32.1c.3 30.5.5 32.2 2.4 34.8 2.4 3.2 5 3.8 20.9 5l10.67.5-.07 21.8H35z"/></svg>
